public/images/facilities/ferry_shenzhen.svg

<svg xmlns="http://www.w3.org/2000/svg" xmlns:xlink="http://www.w3.org/1999/xlink" width="20" height="20" viewBox="0 0 80 80" fill="none"><g><rect  x="0" y="0" width="80" height="80" rx="8"    fill="#666666" ></rect><path d="M48 45L55 45L56 48L48 48L48 45Z"   fill="#FFFFFF" ></path><path d="M40 45L46 45L46 48L40 48L40 45Z"   fill="#FFFFFF" ></path><path d="M31 45L38 45L38 48L32 48L31 45Z"   fill="#FFFFFF" ></path><path d="M36 30L47 33L48 40L34 40L36 30Z"   fill="#FFFFFF" ></path><path   fill="rgba(255, 255, 255, 1)"  d="M7.04217 52.2873L5.54217 47.2873L6.5 46L19 46L19 47L18.0422 46.7127L21.0422 36.7127L22 36L26 36L26 38L22 38L22 37L22.9578 37.2873L19.9578 47.2873L19 48L6.5 48L6.5 47L7.45783 46.7127L8.95783 51.7127L7.04217 52.2873ZM67.5715 52.3714L65.5715 47.3714L66.5 47L66.5 48L64 48L64 46L66.5 46L67.4285 46.6286L69.4285 51.6286L67.5715 52.3714ZM26 36L30 36L30.9701 36.7575L31.9701 40.7575L31 41L31 40L57.5 40L58.4231 40.6154L60.9231 46.6154L60 47L60 46L64 46L64 48L60 48L59.0769 47.3846L56.5769 41.3846L57.5 41L57.5 42L31 42L30.0299 41.2425L29.0299 37.2425L30 37L30 38L26 38L26 36ZM25.0055 36.8953L27.0055 17.8953L28.9945 18.1047L26.9945 37.1047L25.0055 36.8953ZM63.0077 46.876L66.0077 22.876L67.9923 23.124L64.9923 47.124L63.0077 46.876ZM6.5 46L6.5 47L5.54217 47.2873L5.15597 46L6.5 46ZM19 48L19 47L19.9578 47.2873L19.744 48L19 48ZM22 36L22 37L21.0422 36.7127L21.256 36L22 36ZM30.9701 36.7575L30 37L30 36L30.7808 36L30.9701 36.7575ZM30.0299 41.2425L31 41L31 42L30.2192 42L30.0299 41.2425ZM58.4231 40.6154L57.5 41L57.5 40L58.1667 40L58.4231 40.6154ZM59.0769 47.3846L60 47L60 48L59.3333 48L59.0769 47.3846ZM67.4285 46.6286L66.5 47L66.5 46L67.177 46L67.4285 46.6286ZM7.32952 53.2452L7.04217 52.2873L8.95782 51.7127L9.24517 52.6705L7.32952 53.2452ZM67.9429 53.2999L67.5715 52.3714L69.4285 51.6286L69.7999 52.5571L67.9429 53.2999ZM68.1163 22.1318L67.9923 23.124L66.0077 22.876L66.1318 21.8837L68.1163 22.1318ZM29.0992 17.1102L28.9945 18.1047L27.0055 17.8953L27.1102 16.9008L29.0992 17.1102Z"></path><path d="M7 52L74 52L71 63L10 63L7 52Z"   fill="#FFFFFF" ></path></g></svg>

<svg xmlns="http://www.w3.org/2000/svg" width="20" height="20" fill="none" viewBox="0 0 80 80">
  <rect width="80" height="80" fill="#666" rx="8"/>
  <path fill="#fff" d="M48 45h7l1 3h-8zM40 45h6v3h-6zM31 45h7v3h-6zM36 30l11 3 1 7H34z"/>
  <path fill="rgba(255, 255, 255, 1)" d="m7.042 52.287-1.5-5L6.5 46H19v1l-.958-.287 3-10L22 36h4v2h-4v-1l.958.287-3 10L19 48H6.5v-1l.958-.287 1.5 5zm60.53.084-2-5L66.5 47v1H64v-2h2.5l.928.629 2 5zM26 36h4l.97.758 1 4L31 41v-1h26.5l.923.615 2.5 6L60 47v-1h4v2h-4l-.923-.615-2.5-6L57.5 41v1H31l-.97-.758-1-4L30 37v1h-4zm-.994.895 2-19 1.988.21-2 19zm38.002 9.981 3-24 1.984.248-3 24zM6.5 46v1l-.958.287L5.156 46zM19 48v-1l.958.287-.214.713zm3-12v1l-.958-.287.214-.713zm8.97.758L30 37v-1h.78zm-.94 4.484L31 41v1h-.78zm28.393-.627L57.5 41v-1h.667zm.654 6.77L60 47v1h-.667zm8.352-.756L66.5 47v-1h.677zm-60.1 6.616-.287-.958 1.916-.574.287.957zm60.614.055-.371-.929 1.856-.742.372.928zm.173-31.168-.124.992-1.984-.248.124-.992zM29.1 17.11l-.105.995-1.988-.21.104-.994z"/>
  <path fill="#fff" d="M7 52h67l-3 11H10z"/>
</svg>
